assets/svg/check_battery_icon.svg

<svg fill="none" height="125" viewBox="0 0 91 125" width="91" xmlns="http://www.w3.org/2000/svg"><g fill="#7200a6"><path d="m76.0688 72.8558c-.835-1.67-2.8387-2.1713-4.5087-1.3362-1.67.835-2.1713 2.8387-1.3362 4.5087 2.8387 5.3437 4.0081 11.3563 3.1731 17.368-2.0037 15.5307-16.366 26.5527-32.064 24.3817-5.01-.668-9.5187-2.672-13.1931-5.511-8.0163-6.012-12.6919-15.865-11.1888-26.386 2.0038-15.531 16.3661-26.553 32.0641-24.382 2.0037.3338 4.0081.835 6.0118 1.5031 1.67.6682 3.1732 1.3363 4.6763 2.1713 1.5031 1.0019 3.6737.3338 4.5087-1.1688 1.0019-1.5031.3338-3.6737-1.1688-4.5087-2.505-1.5031-5.1768-2.505-8.0162-3.34v-38.076c0-3.6737-1.67-8.0163-9.3519-8.0163h-3.34c0-5.34368-4.3419-9.518678-9.6863-9.518678h-9.5187c-5.3437 0-9.6863 4.341858-9.6863 9.518678h-3.34c-7.68185 0-9.351847 4.3419-9.351847 8.0163v86.0051c0 3.674 1.669997 8.016 9.351847 8.016h8.5169c5.3437 6.346 13.1931 10.855 22.044 12.191 1.5031.167 3.1731.334 4.6763.334 17.368 0 32.398-12.858 34.736-30.3937 1.0018-7.5156-.3338-14.863-4.0082-21.376zm-68.80398-54.776c0-.6681.16688-1.0019.16688-1.0019s.50123-.5012 2.505-.5012h10.02v-6.5132c0-1.66997 1.3362-3.00625 3.0063-3.00625h9.5187c1.67 0 3.0063 1.33622 3.0063 3.00625v6.5132h10.02c2.0037 0 2.505.5012 2.505.5012s.1669.1669.1669 1.0019z"/><path d="m41.3333 107.758c-1.0019 0-2.0037-.333-2.6719-1.168l-15.197-16.3664c-1.3362-1.5031-1.1688-3.6737.1669-5.01 1.5031-1.3362 3.6737-1.1687 5.01.1669l12.1913 13.1932 43.086-59.285c1.1688-1.67 3.34-2.0038 5.01-.835 1.5031 1.1687 2.0037 3.34.835 5.01l-45.5924 62.7923c-.6681.835-1.67 1.336-2.6719 1.503l-.1669-.001z"/></g></svg>

<svg width="91" height="125" viewBox="0 0 91 125" fill="none" xmlns="http://www.w3.org/2000/svg">
<path d="M76.0688 72.8558C75.2338 71.1858 73.2301 70.6845 71.5601 71.5196C69.8901 72.3546 69.3888 74.3583 70.2239 76.0283C73.0626 81.372 74.232 87.3846 73.397 93.3963C71.3933 108.927 57.031 119.949 41.333 117.778C36.323 117.11 31.8143 115.106 28.1399 112.267C20.1236 106.255 15.448 96.402 16.9511 85.881C18.9549 70.35 33.3172 59.328 49.0152 61.499C51.0189 61.8328 53.0233 62.334 55.027 63.0021C56.697 63.6703 58.2002 64.3384 59.7033 65.1734C61.2064 66.1753 63.377 65.5072 64.212 64.0046C65.2139 62.5015 64.5458 60.3309 63.0432 59.4959C60.5382 57.9928 57.8664 56.9909 55.027 56.1559V18.0799C55.027 14.4062 53.357 10.0636 45.6751 10.0636H42.3351C42.3351 4.71992 37.9932 0.544922 32.6488 0.544922H23.1301C17.7864 0.544922 13.4438 4.88678 13.4438 10.0636H10.1038C2.42195 10.0636 0.751953 14.4055 0.751953 18.0799V104.085C0.751953 107.759 2.42195 112.101 10.1038 112.101H18.6207C23.9644 118.447 31.8138 122.956 40.6647 124.292C42.1678 124.459 43.8378 124.626 45.341 124.626C62.709 124.626 77.739 111.768 80.077 94.2323C81.0788 86.7167 79.7432 79.3693 76.0688 72.8563V72.8558ZM7.26482 18.0798C7.26482 17.4117 7.4317 17.0779 7.4317 17.0779C7.4317 17.0779 7.93293 16.5767 9.9367 16.5767H19.9567V10.0635C19.9567 8.39353 21.2929 7.05725 22.963 7.05725H32.4817C34.1517 7.05725 35.488 8.39347 35.488 10.0635V16.5767H45.508C47.5117 16.5767 48.013 17.0779 48.013 17.0779C48.013 17.0779 48.1799 17.2448 48.1799 18.0798H7.26482Z" fill="#7200A6"/>
<path d="M41.3333 107.758C40.3314 107.758 39.3296 107.425 38.6614 106.59L23.4644 90.2236C22.1282 88.7205 22.2956 86.5499 23.6313 85.2136C25.1344 83.8774 27.305 84.0449 28.6413 85.3805L40.8326 98.5737L83.9186 39.2887C85.0874 37.6187 87.2586 37.2849 88.9286 38.4537C90.4317 39.6224 90.9323 41.7937 89.7636 43.4637L44.1712 106.256C43.5031 107.091 42.5012 107.592 41.4993 107.759L41.3324 107.758L41.3333 107.758Z" fill="#7200A6"/>
</svg>
